src/img/features/feature-3.svg

<svg width="69" height="69" viewBox="0 0 69 69" fill="none" xmlns="http://www.w3.org/2000/svg">
<g clip-path="url(#clip0)">
<path d="M67.3738 22.0821L35.1066 0.186431C34.7406 -0.0622112 34.2597 -0.0620764 33.8934 0.186431L1.62621 22.0821C1.32986 22.2831 1.15237 22.6179 1.15237 22.9761V67.9198C1.15237 68.5164 1.63605 69.0002 2.23279 69.0002H66.7672C67.3639 69.0002 67.8476 68.5165 67.8476 67.9198V22.9761C67.8476 22.6179 67.6703 22.2831 67.3738 22.0821ZM26.5052 66.8394H14.8372V55.1713H17.286V61.0053C17.286 61.602 17.7697 62.0858 18.3664 62.0858H22.9761C23.5727 62.0858 24.0565 61.6021 24.0565 61.0053V55.1713H26.5053V66.8394H26.5052ZM12.5324 27.6577V25.2089H56.4677V27.6577H12.5324ZM19.4468 59.9249V55.1713H21.8956V59.9249H19.4468ZM26.5052 53.0105H22.9759H18.3663H14.837V41.3425H17.2858V47.1765C17.2858 47.7731 17.7695 48.2569 18.3663 48.2569H22.9759C23.5725 48.2569 24.0563 47.7733 24.0563 47.1765V41.3425H26.5052V53.0105ZM19.4468 46.0961V41.3425H21.8956V46.0961H19.4468ZM40.334 66.8394H28.666V55.1713H31.1148V61.0053C31.1148 61.602 31.5985 62.0858 32.1952 62.0858H36.8049C37.4016 62.0858 37.8853 61.6021 37.8853 61.0053V55.1713H40.3341V66.8394H40.334ZM33.2755 59.9249V55.1713H35.7243V59.9249H33.2755ZM65.6869 66.8394H56.3237V43.7192C56.3237 43.1226 55.8401 42.6388 55.2433 42.6388C54.6465 42.6388 54.1628 43.1225 54.1628 43.7192V66.8392H42.4948V54.0909C42.4948 53.4943 42.0113 53.0105 41.4144 53.0105H28.666V40.2621C28.666 39.6655 28.1823 39.1817 27.5856 39.1817H14.8372V29.8184H54.1628V39.1097C54.1628 39.7063 54.6464 40.1901 55.2433 40.1901C55.84 40.1901 56.3237 39.7064 56.3237 39.1097V29.8184H57.5482C58.1449 29.8184 58.6286 29.3348 58.6286 28.738V24.1285C58.6286 23.5319 58.145 23.0481 57.5482 23.0481H11.452C10.8554 23.0481 10.3716 23.5317 10.3716 24.1285V28.7381C10.3716 29.3348 10.8552 29.8186 11.452 29.8186H12.6765V66.8395H3.31321V23.5486L34.5 2.38608L65.6868 23.5486V66.8394H65.6869Z" fill="url(#paint0_linear)"/>
<path d="M39.1097 9.21924H29.8905C29.2939 9.21924 28.8101 9.70291 28.8101 10.2997C28.8101 10.8964 29.2937 11.3801 29.8905 11.3801H39.1097C39.7064 11.3801 40.1901 10.8964 40.1901 10.2997C40.1901 9.70291 39.7064 9.21924 39.1097 9.21924Z" fill="url(#paint1_linear)"/>
<path d="M39.1097 13.8289H29.8905C29.2939 13.8289 28.8101 14.3125 28.8101 14.9093C28.8101 15.506 29.2937 15.9897 29.8905 15.9897H39.1097C39.7064 15.9897 40.1901 15.506 40.1901 14.9093C40.1901 14.3125 39.7064 13.8289 39.1097 13.8289Z" fill="url(#paint2_linear)"/>
<path d="M39.1097 18.4384H29.8905C29.2939 18.4384 28.8101 18.922 28.8101 19.5188C28.8101 20.1155 29.2937 20.5992 29.8905 20.5992H39.1097C39.7064 20.5992 40.1901 20.1155 40.1901 19.5188C40.1901 18.922 39.7064 18.4384 39.1097 18.4384Z" fill="url(#paint3_linear)"/>
<path d="M22.9761 49.5533H18.3664C17.7698 49.5533 17.286 50.037 17.286 50.6338C17.286 51.2304 17.7697 51.7142 18.3664 51.7142H22.9761C23.5727 51.7142 24.0565 51.2305 24.0565 50.6338C24.0563 50.037 23.5727 49.5533 22.9761 49.5533Z" fill="url(#paint4_linear)"/>
<path d="M22.9761 63.3821H18.3664C17.7698 63.3821 17.286 63.8658 17.286 64.4625C17.286 65.0591 17.7697 65.5429 18.3664 65.5429H22.9761C23.5727 65.5429 24.0565 65.0592 24.0565 64.4625C24.0563 63.8659 23.5727 63.3821 22.9761 63.3821Z" fill="url(#paint5_linear)"/>
<path d="M36.8048 63.3821H32.1951C31.5985 63.3821 31.1147 63.8658 31.1147 64.4625C31.1147 65.0591 31.5984 65.5429 32.1951 65.5429H36.8048C37.4015 65.5429 37.8852 65.0592 37.8852 64.4625C37.8852 63.8659 37.4016 63.3821 36.8048 63.3821Z" fill="url(#paint6_linear)"/>
</g>
<defs>
<linearGradient id="paint0_linear" x1="67.8476" y1="-55.2003" x2="0.921449" y2="-55.1188" gradientUnits="userSpaceOnUse">
<stop stop-color="#F59E27"/>
<stop offset="1" stop-color="#FC5829"/>
</linearGradient>
<linearGradient id="paint1_linear" x1="40.1901" y1="7.49057" x2="28.7711" y2="7.56632" gradientUnits="userSpaceOnUse">
<stop stop-color="#F59E27"/>
<stop offset="1" stop-color="#FC5829"/>
</linearGradient>
<linearGradient id="paint2_linear" x1="40.1901" y1="12.1002" x2="28.7711" y2="12.1759" gradientUnits="userSpaceOnUse">
<stop stop-color="#F59E27"/>
<stop offset="1" stop-color="#FC5829"/>
</linearGradient>
<linearGradient id="paint3_linear" x1="40.1901" y1="16.7097" x2="28.7711" y2="16.7854" gradientUnits="userSpaceOnUse">
<stop stop-color="#F59E27"/>
<stop offset="1" stop-color="#FC5829"/>
</linearGradient>
<linearGradient id="paint4_linear" x1="24.0565" y1="47.8247" x2="17.2626" y2="47.8515" gradientUnits="userSpaceOnUse">
<stop stop-color="#F59E27"/>
<stop offset="1" stop-color="#FC5829"/>
</linearGradient>
<linearGradient id="paint5_linear" x1="24.0565" y1="61.6534" x2="17.2626" y2="61.6802" gradientUnits="userSpaceOnUse">
<stop stop-color="#F59E27"/>
<stop offset="1" stop-color="#FC5829"/>
</linearGradient>
<linearGradient id="paint6_linear" x1="37.8852" y1="61.6534" x2="31.0913" y2="61.6802" gradientUnits="userSpaceOnUse">
<stop stop-color="#F59E27"/>
<stop offset="1" stop-color="#FC5829"/>
</linearGradient>
<clipPath id="clip0">
<rect width="69" height="69" fill="white"/>
</clipPath>
</defs>
</svg>

<svg width="69" height="69" fill="none" xmlns="http://www.w3.org/2000/svg"><g clip-path="url(#clip0)"><path d="M67.374 22.082L35.107.186a1.08 1.08 0 0 0-1.214 0L1.626 22.082a1.08 1.08 0 0 0-.474.894V67.92c0 .596.484 1.08 1.08 1.08h64.535a1.08 1.08 0 0 0 1.08-1.08V22.976a1.08 1.08 0 0 0-.473-.894zM26.505 66.84H14.837V55.171h2.449v5.834c0 .597.484 1.08 1.08 1.08h4.61a1.08 1.08 0 0 0 1.08-1.08v-5.834h2.45V66.84zM12.532 27.658v-2.45h43.936v2.45H12.532zm6.915 32.267V55.17h2.449v4.754h-2.45zm7.058-6.914H14.837V41.341h2.449v5.834c0 .597.483 1.08 1.08 1.08h4.61a1.08 1.08 0 0 0 1.08-1.08v-5.834h2.45v11.669zm-7.058-6.915v-4.753h2.449v4.753h-2.45zM40.334 66.84H28.666V55.171h2.449v5.834c0 .597.484 1.08 1.08 1.08h4.61a1.08 1.08 0 0 0 1.08-1.08v-5.834h2.45V66.84h-.001zm-7.059-6.914V55.17h2.45v4.754h-2.45zm32.412 6.914h-9.363V43.72a1.08 1.08 0 1 0-2.161 0v23.12H42.495V54.091a1.08 1.08 0 0 0-1.08-1.08H28.665V40.261a1.08 1.08 0 0 0-1.08-1.08H14.837v-9.364h39.326v9.292a1.08 1.08 0 0 0 2.16 0v-9.292h1.225a1.08 1.08 0 0 0 1.08-1.08v-4.61a1.08 1.08 0 0 0-1.08-1.08H11.452a1.08 1.08 0 0 0-1.08 1.08v4.61c0 .597.483 1.08 1.08 1.08h1.225V66.84H3.313V23.55L34.5 2.386 65.687 23.55v43.29z" fill="url(#paint0_linear)"/><path d="M39.11 9.22h-9.22a1.08 1.08 0 0 0 0 2.16h9.22a1.08 1.08 0 1 0 0-2.16z" fill="url(#paint1_linear)"/><path d="M39.11 13.829h-9.22a1.08 1.08 0 1 0 0 2.16h9.22a1.08 1.08 0 1 0 0-2.16z" fill="url(#paint2_linear)"/><path d="M39.11 18.438h-9.22a1.08 1.08 0 1 0 0 2.161h9.22a1.08 1.08 0 1 0 0-2.16z" fill="url(#paint3_linear)"/><path d="M22.976 49.553h-4.61a1.08 1.08 0 0 0 0 2.161h4.61a1.08 1.08 0 0 0 0-2.16z" fill="url(#paint4_linear)"/><path d="M22.976 63.382h-4.61a1.08 1.08 0 0 0 0 2.16h4.61a1.08 1.08 0 0 0 0-2.16z" fill="url(#paint5_linear)"/><path d="M36.805 63.382h-4.61a1.08 1.08 0 0 0 0 2.16h4.61a1.08 1.08 0 1 0 0-2.16z" fill="url(#paint6_linear)"/></g><defs><linearGradient id="paint0_linear" x1="67.848" y1="-55.2" x2=".921" y2="-55.119" gradientUnits="userSpaceOnUse"><stop stop-color="#F59E27"/><stop offset="1" stop-color="#FC5829"/></linearGradient><linearGradient id="paint1_linear" x1="40.19" y1="7.491" x2="28.771" y2="7.566" gradientUnits="userSpaceOnUse"><stop stop-color="#F59E27"/><stop offset="1" stop-color="#FC5829"/></linearGradient><linearGradient id="paint2_linear" x1="40.19" y1="12.1" x2="28.771" y2="12.176" gradientUnits="userSpaceOnUse"><stop stop-color="#F59E27"/><stop offset="1" stop-color="#FC5829"/></linearGradient><linearGradient id="paint3_linear" x1="40.19" y1="16.71" x2="28.771" y2="16.785" gradientUnits="userSpaceOnUse"><stop stop-color="#F59E27"/><stop offset="1" stop-color="#FC5829"/></linearGradient><linearGradient id="paint4_linear" x1="24.056" y1="47.825" x2="17.263" y2="47.852" gradientUnits="userSpaceOnUse"><stop stop-color="#F59E27"/><stop offset="1" stop-color="#FC5829"/></linearGradient><linearGradient id="paint5_linear" x1="24.056" y1="61.653" x2="17.263" y2="61.68" gradientUnits="userSpaceOnUse"><stop stop-color="#F59E27"/><stop offset="1" stop-color="#FC5829"/></linearGradient><linearGradient id="paint6_linear" x1="37.885" y1="61.653" x2="31.091" y2="61.68" gradientUnits="userSpaceOnUse"><stop stop-color="#F59E27"/><stop offset="1" stop-color="#FC5829"/></linearGradient><clipPath id="clip0"><path fill="#fff" d="M0 0h69v69H0z"/></clipPath></defs></svg>
